deployments/warp_routes/HOLO/logo.svg

<svg width="200" height="200" viewBox="0 0 200 200" fill="none" xmlns="http://www.w3.org/2000/svg">
<g clip-path="url(#clip0_12917_113)">
<mask id="mask0_12917_113" style="mask-type:luminance" maskUnits="userSpaceOnUse" x="0" y="0" width="200" height="200">
<path d="M200 0H0V200H200V0Z" fill="white"/>
</mask>
<g mask="url(#mask0_12917_113)">
<g clip-path="url(#paint0_angular_12917_113_clip_path)" data-figma-skip-parse="true"><g transform="matrix(-0.069 0.1215 -0.1215 -0.069 100 100)"><foreignObject x="-980.639" y="-980.639" width="1961.28" height="1961.28"><div xmlns="http://www.w3.org/1999/xhtml" style="background:conic-gradient(from 90deg,rgba(220, 237, 113, 1) 0deg,rgba(7, 237, 223, 1) 36deg,rgba(113, 200, 249, 1) 72deg,rgba(220, 237, 113, 1) 108deg,rgba(197, 237, 112, 1) 144deg,rgba(7, 195, 237, 1) 180deg,rgba(7, 223, 237, 1) 216deg,rgba(123, 228, 177, 1) 252deg,rgba(150, 216, 237, 1) 288deg,rgba(220, 237, 113, 1) 324deg,rgba(197, 237, 112, 1) 360deg);height:100%;width:100%;opacity:1"></div></foreignObject></g></g><path d="M200 0H0V200H200V0Z" data-figma-gradient-fill="{&#34;type&#34;:&#34;GRADIENT_ANGULAR&#34;,&#34;stops&#34;:[{&#34;color&#34;:{&#34;r&#34;:0.86274510622024536,&#34;g&#34;:0.92941176891326904,&#34;b&#34;:0.44313725829124451,&#34;a&#34;:1.0},&#34;position&#34;:0.0},{&#34;color&#34;:{&#34;r&#34;:0.031372547149658203,&#34;g&#34;:0.92941176891326904,&#34;b&#34;:0.87552946805953979,&#34;a&#34;:1.0},&#34;position&#34;:0.10000000149011612},{&#34;color&#34;:{&#34;r&#34;:0.44313728809356689,&#34;g&#34;:0.78447055816650391,&#34;b&#34;:0.97647058963775635,&#34;a&#34;:1.0},&#34;position&#34;:0.20000000298023224},{&#34;color&#34;:{&#34;r&#34;:0.86274510622024536,&#34;g&#34;:0.92941176891326904,&#34;b&#34;:0.44313725829124451,&#34;a&#34;:1.0},&#34;position&#34;:0.30000001192092896},{&#34;color&#34;:{&#34;r&#34;:0.77380394935607910,&#34;g&#34;:0.92941176891326904,&#34;b&#34;:0.44313722848892212,&#34;a&#34;:1.0},&#34;position&#34;:0.40000000596046448},{&#34;color&#34;:{&#34;r&#34;:0.031372547149658203,&#34;g&#34;:0.76776486635208130,&#34;b&#34;:0.92941176891326904,&#34;a&#34;:1.0},&#34;position&#34;:0.50},{&#34;color&#34;:{&#34;r&#34;:0.031372547149658203,&#34;g&#34;:0.87552946805953979,&#34;b&#34;:0.92941176891326904,&#34;a&#34;:1.0},&#34;position&#34;:0.60000002384185791},{&#34;color&#34;:{&#34;r&#34;:0.48235294222831726,&#34;g&#34;:0.89411765336990356,&#34;b&#34;:0.69647061824798584,&#34;a&#34;:1.0},&#34;position&#34;:0.69999998807907104},{&#34;color&#34;:{&#34;r&#34;:0.58823531866073608,&#34;g&#34;:0.84752929210662842,&#34;b&#34;:0.92941176891326904,&#34;a&#34;:1.0},&#34;position&#34;:0.80000001192092896},{&#34;color&#34;:{&#34;r&#34;:0.86274510622024536,&#34;g&#34;:0.92941176891326904,&#34;b&#34;:0.44313725829124451,&#34;a&#34;:1.0},&#34;position&#34;:0.89999997615814209},{&#34;color&#34;:{&#34;r&#34;:0.77380394935607910,&#34;g&#34;:0.92941176891326904,&#34;b&#34;:0.44313722848892212,&#34;a&#34;:1.0},&#34;position&#34;:1.0}],&#34;stopsVar&#34;:[{&#34;color&#34;:{&#34;r&#34;:0.86274510622024536,&#34;g&#34;:0.92941176891326904,&#34;b&#34;:0.44313725829124451,&#34;a&#34;:1.0},&#34;position&#34;:0.0},{&#34;color&#34;:{&#34;r&#34;:0.031372547149658203,&#34;g&#34;:0.92941176891326904,&#34;b&#34;:0.87552946805953979,&#34;a&#34;:1.0},&#34;position&#34;:0.10000000149011612},{&#34;color&#34;:{&#34;r&#34;:0.44313728809356689,&#34;g&#34;:0.78447055816650391,&#34;b&#34;:0.97647058963775635,&#34;a&#34;:1.0},&#34;position&#34;:0.20000000298023224},{&#34;color&#34;:{&#34;r&#34;:0.86274510622024536,&#34;g&#34;:0.92941176891326904,&#34;b&#34;:0.44313725829124451,&#34;a&#34;:1.0},&#34;position&#34;:0.30000001192092896},{&#34;color&#34;:{&#34;r&#34;:0.77380394935607910,&#34;g&#34;:0.92941176891326904,&#34;b&#34;:0.44313722848892212,&#34;a&#34;:1.0},&#34;position&#34;:0.40000000596046448},{&#34;color&#34;:{&#34;r&#34;:0.031372547149658203,&#34;g&#34;:0.76776486635208130,&#34;b&#34;:0.92941176891326904,&#34;a&#34;:1.0},&#34;position&#34;:0.50},{&#34;color&#34;:{&#34;r&#34;:0.031372547149658203,&#34;g&#34;:0.87552946805953979,&#34;b&#34;:0.92941176891326904,&#34;a&#34;:1.0},&#34;position&#34;:0.60000002384185791},{&#34;color&#34;:{&#34;r&#34;:0.48235294222831726,&#34;g&#34;:0.89411765336990356,&#34;b&#34;:0.69647061824798584,&#34;a&#34;:1.0},&#34;position&#34;:0.69999998807907104},{&#34;color&#34;:{&#34;r&#34;:0.58823531866073608,&#34;g&#34;:0.84752929210662842,&#34;b&#34;:0.92941176891326904,&#34;a&#34;:1.0},&#34;position&#34;:0.80000001192092896},{&#34;color&#34;:{&#34;r&#34;:0.86274510622024536,&#34;g&#34;:0.92941176891326904,&#34;b&#34;:0.44313725829124451,&#34;a&#34;:1.0},&#34;position&#34;:0.89999997615814209},{&#34;color&#34;:{&#34;r&#34;:0.77380394935607910,&#34;g&#34;:0.92941176891326904,&#34;b&#34;:0.44313722848892212,&#34;a&#34;:1.0},&#34;position&#34;:1.0}],&#34;transform&#34;:{&#34;m00&#34;:-138.00003051757812,&#34;m01&#34;:-242.99996948242188,&#34;m02&#34;:290.50,&#34;m10&#34;:242.99996948242188,&#34;m11&#34;:-138.00003051757812,&#34;m12&#34;:47.500026702880859},&#34;opacity&#34;:1.0,&#34;blendMode&#34;:&#34;NORMAL&#34;,&#34;visible&#34;:true}"/>
<foreignObject x="-29.0479" y="-29.0479" width="258.096" height="258.096"><div xmlns="http://www.w3.org/1999/xhtml" style="backdrop-filter:blur(14.52px);clip-path:url(#bgblur_1_12917_113_clip_path);height:100%;width:100%"></div></foreignObject><path data-figma-bg-blur-radius="29.0479" d="M200 0H0V200H200V0Z" fill="white" fill-opacity="0.01"/>
<path fill-rule="evenodd" clip-rule="evenodd" d="M69.6506 58.8385C66.2001 69.1885 63.9976 83.742 63.9976 100C63.9976 116.258 66.2001 130.811 69.6506 141.161C71.3826 146.357 73.3571 150.274 75.3551 152.809C77.3886 155.389 78.9881 156 79.9991 156C81.0101 156 82.6091 155.389 84.6431 152.809C86.6411 150.274 88.6156 146.357 90.3476 141.161C93.7976 130.811 96.0006 116.258 96.0006 100C96.0006 83.742 93.7976 69.1885 90.3476 58.8385C88.6156 53.6425 86.6411 49.7263 84.6431 47.1911C82.6091 44.6109 81.0101 44 79.9991 44C78.9881 44 77.3886 44.6109 75.3551 47.1911C73.3571 49.7263 71.3826 53.6425 69.6506 58.8385ZM69.0721 42.2391C71.8241 38.747 75.4866 36 79.9991 36C84.5116 36 88.1736 38.747 90.9261 42.2391C93.7141 45.7763 96.0496 50.6465 97.9371 56.3085C101.726 67.674 104.001 83.121 104.001 100C104.001 116.879 101.726 132.326 97.9371 143.691C96.0496 149.353 93.7141 154.224 90.9261 157.761C88.1736 161.253 84.5116 164 79.9991 164C75.4866 164 71.8241 161.253 69.0721 157.761C66.2841 154.224 63.9486 149.353 62.0611 143.691C58.2726 132.326 55.9976 116.879 55.9976 100C55.9976 83.121 58.2726 67.674 62.0611 56.3085C63.9486 50.6465 66.2841 45.7763 69.0721 42.2391Z" fill="black"/>
<path fill-rule="evenodd" clip-rule="evenodd" d="M109.649 58.8385C106.199 69.1885 103.996 83.742 103.996 100C103.996 116.258 106.199 130.811 109.649 141.161C111.381 146.357 113.355 150.274 115.353 152.809C117.387 155.389 118.986 156 119.997 156C121.008 156 122.608 155.389 124.641 152.809C126.639 150.274 128.614 146.357 130.346 141.161C133.796 130.811 135.999 116.258 135.999 100C135.999 83.742 133.796 69.1885 130.346 58.8385C128.614 53.6425 126.639 49.7263 124.641 47.1911C122.608 44.6109 121.008 44 119.997 44C118.986 44 117.387 44.6109 115.353 47.1911C113.355 49.7263 111.381 53.6425 109.649 58.8385ZM109.07 42.2391C111.823 38.747 115.485 36 119.997 36C124.51 36 128.172 38.747 130.924 42.2391C133.712 45.7763 136.048 50.6465 137.935 56.3085C141.724 67.674 143.999 83.121 143.999 100C143.999 116.879 141.724 132.326 137.935 143.691C136.048 149.353 133.712 154.224 130.924 157.761C128.172 161.253 124.51 164 119.997 164C115.485 164 111.823 161.253 109.07 157.761C106.282 154.224 103.947 149.353 102.059 143.691C98.2706 132.326 95.9956 116.879 95.9956 100C95.9956 83.121 98.2706 67.674 102.059 56.3085C103.947 50.6465 106.282 45.7763 109.07 42.2391Z" fill="black"/>
<path fill-rule="evenodd" clip-rule="evenodd" d="M47.1911 95.356C44.6109 97.3895 44 98.989 44 100C44 101.011 44.6109 102.61 47.1911 104.644C49.7263 106.642 53.6425 108.616 58.8385 110.349C69.1885 113.799 83.742 116.002 100 116.002C116.258 116.002 130.811 113.799 141.161 110.349C146.357 108.616 150.274 106.642 152.809 104.644C155.389 102.61 156 101.011 156 100C156 98.989 155.389 97.3895 152.809 95.356C150.274 93.358 146.357 91.3835 141.161 89.6515C130.811 86.201 116.258 83.9985 100 83.9985C83.742 83.9985 69.1885 86.201 58.8385 89.6515C53.6425 91.3835 49.7263 93.358 47.1911 95.356ZM56.3085 82.062C67.674 78.2735 83.121 75.9985 100 75.9985C116.879 75.9985 132.326 78.2735 143.691 82.062C149.353 83.9495 154.224 86.285 157.761 89.073C161.253 91.825 164 95.4875 164 100C164 104.513 161.253 108.175 157.761 110.927C154.224 113.715 149.353 116.051 143.691 117.938C132.326 121.727 116.879 124.002 100 124.002C83.121 124.002 67.674 121.727 56.3085 117.938C50.6465 116.051 45.7763 113.715 42.2391 110.927C38.747 108.175 36 104.513 36 100C36 95.4875 38.747 91.825 42.2391 89.073C45.7763 86.285 50.6465 83.9495 56.3085 82.062Z" fill="black"/>
</g>
</g>
<defs>
<clipPath id="paint0_angular_12917_113_clip_path"><path d="M200 0H0V200H200V0Z"/></clipPath><clipPath id="bgblur_1_12917_113_clip_path" transform="translate(29.0479 29.0479)"><path d="M200 0H0V200H200V0Z"/>
</clipPath><clipPath id="clip0_12917_113">
<rect width="200" height="200" fill="white"/>
</clipPath>
</defs>
</svg>

<svg xmlns="http://www.w3.org/2000/svg" width="200" height="200" fill="none" viewBox="0 0 200 200"><g clip-path="url(#a)"><mask id="b" width="200" height="200" x="0" y="0" maskUnits="userSpaceOnUse" style="mask-type:luminance"><path fill="#fff" d="M200 0H0v200h200z"/></mask><g mask="url(#b)"><g clip-path="url(#c)" data-figma-skip-parse="true"><foreignObject width="1961.28" height="1961.28" x="-980.639" y="-980.639" transform="matrix(-.069 .1215 -.1215 -.069 100 100)"><div xmlns="http://www.w3.org/1999/xhtml" style="background:conic-gradient(from 90deg,#dced71 0deg,#07eddf 36deg,#71c8f9 72deg,#dced71 108deg,#c5ed70 144deg,#07c3ed 180deg,#07dfed 216deg,#7be4b1 252deg,#96d8ed 288deg,#dced71 324deg,#c5ed70 360deg);height:100%;width:100%;opacity:1"/></foreignObject></g><path d="M200 0H0v200h200z" data-figma-gradient-fill="{&quot;type&quot;:&quot;GRADIENT_ANGULAR&quot;,&quot;stops&quot;:[{&quot;color&quot;:{&quot;r&quot;:0.86274510622024536,&quot;g&quot;:0.92941176891326904,&quot;b&quot;:0.44313725829124451,&quot;a&quot;:1.0},&quot;position&quot;:0.0},{&quot;color&quot;:{&quot;r&quot;:0.031372547149658203,&quot;g&quot;:0.92941176891326904,&quot;b&quot;:0.87552946805953979,&quot;a&quot;:1.0},&quot;position&quot;:0.10000000149011612},{&quot;color&quot;:{&quot;r&quot;:0.44313728809356689,&quot;g&quot;:0.78447055816650391,&quot;b&quot;:0.97647058963775635,&quot;a&quot;:1.0},&quot;position&quot;:0.20000000298023224},{&quot;color&quot;:{&quot;r&quot;:0.86274510622024536,&quot;g&quot;:0.92941176891326904,&quot;b&quot;:0.44313725829124451,&quot;a&quot;:1.0},&quot;position&quot;:0.30000001192092896},{&quot;color&quot;:{&quot;r&quot;:0.77380394935607910,&quot;g&quot;:0.92941176891326904,&quot;b&quot;:0.44313722848892212,&quot;a&quot;:1.0},&quot;position&quot;:0.40000000596046448},{&quot;color&quot;:{&quot;r&quot;:0.031372547149658203,&quot;g&quot;:0.76776486635208130,&quot;b&quot;:0.92941176891326904,&quot;a&quot;:1.0},&quot;position&quot;:0.50},{&quot;color&quot;:{&quot;r&quot;:0.031372547149658203,&quot;g&quot;:0.87552946805953979,&quot;b&quot;:0.92941176891326904,&quot;a&quot;:1.0},&quot;position&quot;:0.60000002384185791},{&quot;color&quot;:{&quot;r&quot;:0.48235294222831726,&quot;g&quot;:0.89411765336990356,&quot;b&quot;:0.69647061824798584,&quot;a&quot;:1.0},&quot;position&quot;:0.69999998807907104},{&quot;color&quot;:{&quot;r&quot;:0.58823531866073608,&quot;g&quot;:0.84752929210662842,&quot;b&quot;:0.92941176891326904,&quot;a&quot;:1.0},&quot;position&quot;:0.80000001192092896},{&quot;color&quot;:{&quot;r&quot;:0.86274510622024536,&quot;g&quot;:0.92941176891326904,&quot;b&quot;:0.44313725829124451,&quot;a&quot;:1.0},&quot;position&quot;:0.89999997615814209},{&quot;color&quot;:{&quot;r&quot;:0.77380394935607910,&quot;g&quot;:0.92941176891326904,&quot;b&quot;:0.44313722848892212,&quot;a&quot;:1.0},&quot;position&quot;:1.0}],&quot;stopsVar&quot;:[{&quot;color&quot;:{&quot;r&quot;:0.86274510622024536,&quot;g&quot;:0.92941176891326904,&quot;b&quot;:0.44313725829124451,&quot;a&quot;:1.0},&quot;position&quot;:0.0},{&quot;color&quot;:{&quot;r&quot;:0.031372547149658203,&quot;g&quot;:0.92941176891326904,&quot;b&quot;:0.87552946805953979,&quot;a&quot;:1.0},&quot;position&quot;:0.10000000149011612},{&quot;color&quot;:{&quot;r&quot;:0.44313728809356689,&quot;g&quot;:0.78447055816650391,&quot;b&quot;:0.97647058963775635,&quot;a&quot;:1.0},&quot;position&quot;:0.20000000298023224},{&quot;color&quot;:{&quot;r&quot;:0.86274510622024536,&quot;g&quot;:0.92941176891326904,&quot;b&quot;:0.44313725829124451,&quot;a&quot;:1.0},&quot;position&quot;:0.30000001192092896},{&quot;color&quot;:{&quot;r&quot;:0.77380394935607910,&quot;g&quot;:0.92941176891326904,&quot;b&quot;:0.44313722848892212,&quot;a&quot;:1.0},&quot;position&quot;:0.40000000596046448},{&quot;color&quot;:{&quot;r&quot;:0.031372547149658203,&quot;g&quot;:0.76776486635208130,&quot;b&quot;:0.92941176891326904,&quot;a&quot;:1.0},&quot;position&quot;:0.50},{&quot;color&quot;:{&quot;r&quot;:0.031372547149658203,&quot;g&quot;:0.87552946805953979,&quot;b&quot;:0.92941176891326904,&quot;a&quot;:1.0},&quot;position&quot;:0.60000002384185791},{&quot;color&quot;:{&quot;r&quot;:0.48235294222831726,&quot;g&quot;:0.89411765336990356,&quot;b&quot;:0.69647061824798584,&quot;a&quot;:1.0},&quot;position&quot;:0.69999998807907104},{&quot;color&quot;:{&quot;r&quot;:0.58823531866073608,&quot;g&quot;:0.84752929210662842,&quot;b&quot;:0.92941176891326904,&quot;a&quot;:1.0},&quot;position&quot;:0.80000001192092896},{&quot;color&quot;:{&quot;r&quot;:0.86274510622024536,&quot;g&quot;:0.92941176891326904,&quot;b&quot;:0.44313725829124451,&quot;a&quot;:1.0},&quot;position&quot;:0.89999997615814209},{&quot;color&quot;:{&quot;r&quot;:0.77380394935607910,&quot;g&quot;:0.92941176891326904,&quot;b&quot;:0.44313722848892212,&quot;a&quot;:1.0},&quot;position&quot;:1.0}],&quot;transform&quot;:{&quot;m00&quot;:-138.00003051757812,&quot;m01&quot;:-242.99996948242188,&quot;m02&quot;:290.50,&quot;m10&quot;:242.99996948242188,&quot;m11&quot;:-138.00003051757812,&quot;m12&quot;:47.500026702880859},&quot;opacity&quot;:1.0,&quot;blendMode&quot;:&quot;NORMAL&quot;,&quot;visible&quot;:true}"/><foreignObject width="258.096" height="258.096" x="-29.048" y="-29.048"><div xmlns="http://www.w3.org/1999/xhtml" style="backdrop-filter:blur(14.52px);clip-path:url(#d);height:100%;width:100%"/></foreignObject><path fill="#fff" fill-opacity=".01" d="M200 0H0v200h200z" data-figma-bg-blur-radius="29.048"/><path fill="#000" fill-rule="evenodd" d="M69.65 58.839C66.2 69.189 63.999 83.742 63.999 100s2.202 30.811 5.653 41.161c1.732 5.196 3.706 9.113 5.704 11.648C77.39 155.389 78.988 156 80 156s2.61-.611 4.644-3.191c1.998-2.535 3.973-6.452 5.705-11.648C93.798 130.811 96 116.258 96 100s-2.203-30.811-5.653-41.161c-1.732-5.196-3.707-9.113-5.705-11.648C82.61 44.611 81.01 44 80 44s-2.61.61-4.644 3.191c-1.998 2.535-3.972 6.451-5.704 11.648m-.578-16.6C71.824 38.747 75.487 36 80 36s8.175 2.747 10.927 6.24c2.788 3.536 5.124 8.407 7.011 14.069 3.789 11.365 6.064 26.812 6.064 43.691s-2.275 32.326-6.064 43.691c-1.887 5.662-4.223 10.533-7.01 14.07C88.175 161.253 84.513 164 80 164c-4.512 0-8.175-2.747-10.927-6.239-2.788-3.537-5.123-8.408-7.01-14.07-3.79-11.365-6.064-26.812-6.064-43.691s2.275-32.326 6.063-43.691c1.888-5.662 4.223-10.533 7.011-14.07" clip-rule="evenodd"/><path fill="#000" fill-rule="evenodd" d="M109.649 58.839c-3.45 10.35-5.653 24.903-5.653 41.161s2.203 30.811 5.653 41.161c1.732 5.196 3.706 9.113 5.704 11.648 2.034 2.58 3.633 3.191 4.644 3.191s2.611-.611 4.644-3.191c1.998-2.535 3.973-6.452 5.705-11.648 3.45-10.35 5.653-24.903 5.653-41.161s-2.203-30.811-5.653-41.161c-1.732-5.196-3.707-9.113-5.705-11.648-2.033-2.58-3.633-3.191-4.644-3.191s-2.61.61-4.644 3.191c-1.998 2.535-3.972 6.451-5.704 11.648m-.579-16.6c2.753-3.492 6.415-6.239 10.927-6.239 4.513 0 8.175 2.747 10.927 6.24 2.788 3.536 5.124 8.407 7.011 14.069 3.789 11.365 6.064 26.812 6.064 43.691s-2.275 32.326-6.064 43.691c-1.887 5.662-4.223 10.533-7.011 14.07-2.752 3.492-6.414 6.239-10.927 6.239-4.512 0-8.174-2.747-10.927-6.239-2.788-3.537-5.123-8.408-7.011-14.07-3.788-11.365-6.063-26.812-6.063-43.691s2.275-32.326 6.063-43.691c1.888-5.662 4.223-10.533 7.011-14.07" clip-rule="evenodd"/><path fill="#000" fill-rule="evenodd" d="M47.191 95.356C44.611 97.39 44 98.989 44 100s.61 2.61 3.191 4.644c2.535 1.998 6.451 3.972 11.648 5.705 10.35 3.45 24.903 5.653 41.161 5.653s30.811-2.203 41.161-5.653c5.196-1.733 9.113-3.707 11.648-5.705 2.58-2.034 3.191-3.633 3.191-4.644s-.611-2.61-3.191-4.644c-2.535-1.998-6.452-3.972-11.648-5.704-10.35-3.451-24.903-5.653-41.161-5.653S69.189 86.2 58.839 89.652c-5.196 1.731-9.113 3.706-11.648 5.704m9.118-13.294C67.674 78.274 83.12 75.999 100 75.999s32.326 2.275 43.691 6.063c5.662 1.888 10.533 4.223 14.07 7.011C161.253 91.825 164 95.488 164 100c0 4.513-2.747 8.175-6.239 10.927-3.537 2.788-8.408 5.124-14.07 7.011-11.365 3.789-26.812 6.064-43.691 6.064s-32.326-2.275-43.691-6.064c-5.662-1.887-10.533-4.223-14.07-7.011C38.747 108.175 36 104.513 36 100s2.747-8.175 6.24-10.927c3.536-2.788 8.407-5.123 14.069-7.011" clip-rule="evenodd"/></g></g><defs><clipPath id="c"><path d="M200 0H0v200h200z"/></clipPath><clipPath id="d" transform="translate(29.048 29.048)"><path d="M200 0H0v200h200z"/></clipPath><clipPath id="a"><path fill="#fff" d="M0 0h200v200H0z"/></clipPath></defs></svg>
